X:62
T:Miners of Wicklow. LIT.062, The
M:6/8
Q:3/8=100
L:1/8
B:Wm. Litten MS, 1802
Z:Village Music Project 2017 Anne Wride
K:D
G |: FGA AB=c | BGB AFA | BGE EGE | AFD DFD |
FGA AB=c | BGB AFA | BdB cec | d3 d3 :|
|: fdf fdf | ece ece | fdf fdf |geg geg |
fdf fdf | ecA AcA | BdB cec | d3 d3:|

